public/assets/socials/instagram.svg

<svg fill="none" height="45" viewBox="0 0 45 45" width="45" xmlns="http://www.w3.org/2000/svg"><path d="m28.5619 10.29c-1.5807-.0712-2.0569-.0863-6.0619-.0863s-4.4794.0151-6.06.0863c-4.0688.1856-5.9644 2.1131-6.1481 6.1481-.0731 1.5825-.09 2.0569-.09 6.0619s.0169 4.4794.0881 6.0619c.1856 4.0275 2.0738 5.9625 6.1481 6.1481 1.5807.0712 2.0569.0881 6.0619.0881 4.0069 0 4.4812-.015 6.0619-.0862 4.0687-.1856 5.9625-2.1169 6.1481-6.1481.0712-1.5825.0862-2.0569.0862-6.0619s-.015-4.4794-.0862-6.06c-.1856-4.0369-2.0831-5.9663-6.1481-6.1519zm-6.0619 19.9125c-4.2544 0-7.7025-3.4481-7.7025-7.7025s3.45-7.7025 7.7025-7.7025 7.7025 3.4481 7.7025 7.7025-3.4481 7.7025-7.7025 7.7025zm8.0081-13.9088c-.9937 0-1.8-.8062-1.8-1.8 0-.9937.8063-1.7999 1.8-1.7999.9938 0 1.8.8062 1.8 1.7999 0 .9938-.8062 1.8-1.8 1.8zm-3.0075 6.2063c0 2.7619-2.2387 5.0006-5.0006 5.0006s-5.0006-2.2387-5.0006-5.0006 2.2387-5.0006 5.0006-5.0006 5.0006 2.2387 5.0006 5.0006zm8.1244-22.5h-26.25c-5.17687 0-9.375 4.19813-9.375 9.375v26.25c0 5.1769 4.19813 9.375 9.375 9.375h26.25c5.1787 0 9.375-4.1981 9.375-9.375v-26.25c0-5.17687-4.1963-9.375-9.375-9.375zm1.785 28.6838c-.2475 5.4543-3.2831 8.4768-8.7244 8.7262-1.6012.0731-2.1112.09-6.1856.09s-4.5825-.0169-6.1838-.09c-5.4525-.2494-8.47495-3.2775-8.7262-8.7262-.07313-1.5994-.09-2.1094-.09-6.1838 0-4.0725.01687-4.5844.09-6.1838.25125-5.4525 3.2775-8.47683 8.7262-8.72433 1.6013-.075 2.1094-.09187 6.1838-.09187s4.5844.01687 6.1856.09c5.4525.24937 8.4806 3.2831 8.7244 8.7244.0731 1.6012.09 2.1131.09 6.1856 0 4.0744-.0169 4.5844-.09 6.1838z" fill="#fff"/></svg>

<svg width="45" height="45" viewBox="0 0 45 45" fill="none" xmlns="http://www.w3.org/2000/svg">
<path d="M28.5619 10.29C26.9812 10.2188 26.505 10.2037 22.5 10.2037C18.495 10.2037 18.0206 10.2188 16.44 10.29C12.3712 10.4756 10.4756 12.4031 10.2919 16.4381C10.2188 18.0206 10.2019 18.495 10.2019 22.5C10.2019 26.505 10.2188 26.9794 10.29 28.5619C10.4756 32.5894 12.3638 34.5244 16.4381 34.71C18.0188 34.7812 18.495 34.7981 22.5 34.7981C26.5069 34.7981 26.9812 34.7831 28.5619 34.7119C32.6306 34.5263 34.5244 32.595 34.71 28.5638C34.7812 26.9813 34.7962 26.5069 34.7962 22.5019C34.7962 18.4969 34.7812 18.0225 34.71 16.4419C34.5244 12.405 32.6269 10.4756 28.5619 10.29ZM22.5 30.2025C18.2456 30.2025 14.7975 26.7544 14.7975 22.5C14.7975 18.2456 18.2475 14.7975 22.5 14.7975C26.7525 14.7975 30.2025 18.2456 30.2025 22.5C30.2025 26.7544 26.7544 30.2025 22.5 30.2025ZM30.5081 16.2937C29.5144 16.2937 28.7081 15.4875 28.7081 14.4937C28.7081 13.5 29.5144 12.6938 30.5081 12.6938C31.5019 12.6938 32.3081 13.5 32.3081 14.4937C32.3081 15.4875 31.5019 16.2937 30.5081 16.2937ZM27.5006 22.5C27.5006 25.2619 25.2619 27.5006 22.5 27.5006C19.7381 27.5006 17.4994 25.2619 17.4994 22.5C17.4994 19.7381 19.7381 17.4994 22.5 17.4994C25.2619 17.4994 27.5006 19.7381 27.5006 22.5ZM35.625 0H9.375C4.19813 0 0 4.19813 0 9.375V35.625C0 40.8019 4.19813 45 9.375 45H35.625C40.8037 45 45 40.8019 45 35.625V9.375C45 4.19813 40.8037 0 35.625 0V0ZM37.41 28.6838C37.1625 34.1381 34.1269 37.1606 28.6856 37.41C27.0844 37.4831 26.5744 37.5 22.5 37.5C18.4256 37.5 17.9175 37.4831 16.3162 37.41C10.8637 37.1606 7.84125 34.1325 7.59 28.6838C7.51687 27.0844 7.5 26.5744 7.5 22.5C7.5 18.4275 7.51687 17.9156 7.59 16.3162C7.84125 10.8637 10.8675 7.83937 16.3162 7.59187C17.9175 7.51687 18.4256 7.5 22.5 7.5C26.5744 7.5 27.0844 7.51687 28.6856 7.59C34.1381 7.83937 37.1662 10.8731 37.41 16.3144C37.4831 17.9156 37.5 18.4275 37.5 22.5C37.5 26.5744 37.4831 27.0844 37.41 28.6838Z" fill="white"/>
</svg>
